X:149
T:Princess Augusta's Tamborine. JJo8.149
%%VWML:JohnsonVol8-2184-p75-0
F:http://www.vwml.org/record/JohnsonVol8/2184/p75
Z:Transcribed by Simon Furey and Lewis Jones
Z:vmp.Simon Wilson 2013 www.village-music-project.org.uk
Z:Dance added by John Chambers 2017
M:2/4
L:1/8
%Q:1/4=100
K:D
|:\
f//e//d3/ .d.d | (c/d/e) AG | FA df | e/d/c/B/A2 |\
f//e//d3/ .d.d | (c/d/e) AG | FDgf | Tf2e2 :|
|:\
(a/g/f f)e | (^d/e/f)B2 | ^d/B/c/d/ e/f/g/a/ | gfe2 |\
(g/f/e) e=d | (c/d/e)A2 | c/A/B/c/ d/e/f/g/ | fed2 |
(f//e//d3/) .d.d | (c/d/e)d2 | (a//f//d3/) .d.d | (c/d/)e db |\
(a/f/)d (g/e/)c | (f/d/)B (e/c/)A | F/A/d (g/e/)c | d2D2 :|
W: The 1st Cu. cast off two Cu. .| Lead up to the top
W:and cast off one Cu. .| then lead thro' the Bottom
W:and cast up and foot it and turn your Partner .|
W:hands six round and right hand and left :|
W:
T:Merry Girls of Maidstone. JJo8.150
B:J.Johnson Choice Collection Vol 8 1758
Z:vmp.Simon Wilson 2013 www.village-music-project.org.uk
Z:Dance added by John Chambers 2017
M:6/8
L:1/8
%Q:3/8=110
K:G
|:\
B2B BdB | A2A TA3 | B2B BdB | G2G TG3 |\
B2B BdB | A2A TA2g | (f/g/a)c BAG | DEF G3 :|
|:\
B2B B^c^d | efg Tf3 | geb gfe | B^c^d e2g |\
dgd BdB | cAc B2e | (d/c/B)g BcA | (G3 G3) :|
W: The 1st and 2d Cu. foot it and
W:turn Partners .| then foot it
W:Sides and turn ..| Gallop down and
W:up and cast off one Cu. .| Right
W:and Left at top ..|
W:
